X: 15
T:Devil and the Bailiff, The************
T:T\'aim in Arrears
T:Mall Rua
M:9/8
L:1/8
R:slip jig
D:Stockton's Wing.
D:Paul McGrattan: The Frost is all Over
Z:id:hn-slipjig-8
K:G
DGG GAG FGA|BdB GAB c3|DGG GAG FGA|1 BdB cAF ~G3:|2 BdB cAF G2B||
|:ded cAG FED|ded cAB c3|ded cAG FGA|1 BdB cAF G2B:|2 BdB cAF ~G3||

